X: 297
T: A Night In Montreal
R: reel
M: 4/4
K: Emajor
|:e2 ee bege|ebag agfe|B2 BB ceef|agge fbag|
e2 ee bege|ebag agfe|c2 cc cBGB|1 ceBG Aagf:|2 ceBG Aefg||
agfe c2 cc|agfe B2BB|ceec effe|fggb agfe|
c2cc agfe|B2BB Bcec|efef gffg|f2 ff fefg|
agfe c2 cc|agfe B2BB|ceec effe|fggb agfe|
agfe c2 cc|agfe B2BB|Bcec efef|gffg fbag||

